icons/functiongenerator.svg

<?xml version="1.0" encoding="utf-8"?>
<!-- Generator: Adobe Illustrator 25.1.0, SVG Export Plug-In . SVG Version: 6.00 Build 0)  -->
<svg version="1.1"
	 id="svg8" inkscape:version="1.0.1 (3bc2e813f5, 2020-09-07)" sodipodi:docname="template.svg" xmlns:cc="http://creativecommons.org/ns#" xmlns:dc="http://purl.org/dc/elements/1.1/" xmlns:inkscape="http://www.inkscape.org/namespaces/inkscape" xmlns:rdf="http://www.w3.org/1999/02/22-rdf-syntax-ns#" xmlns:sodipodi="http://sodipodi.sourceforge.net/DTD/sodipodi-0.dtd" xmlns:svg="http://www.w3.org/2000/svg"
	 xmlns="http://www.w3.org/2000/svg" xmlns:xlink="http://www.w3.org/1999/xlink" x="0px" y="0px" viewBox="0 0 48 48"
	 style="enable-background:new 0 0 48 48;" xml:space="preserve">
<style type="text/css">
	.st0{fill:none;stroke:#FFFFFF;stroke-linecap:round;stroke-linejoin:round;stroke-miterlimit:7;stroke-opacity:0.9899;}
	.st1{fill:none;stroke:#FFFFFF;stroke-linecap:round;stroke-linejoin:round;stroke-opacity:0.9899;}
	.st2{fill:none;stroke:#FFFFFF;stroke-linecap:round;stroke-linejoin:round;}
</style>
<g>
	
		<sodipodi:namedview  bordercolor="#666666" borderopacity="1" gridtolerance="10" guidetolerance="10" id="namedview10" inkscape:current-layer="svg8" inkscape:cx="-6.8857468" inkscape:cy="47.509121" inkscape:document-rotation="0" inkscape:guide-bbox="true" inkscape:pageopacity="0" inkscape:pageshadow="2" inkscape:window-height="2098" inkscape:window-maximized="1" inkscape:window-width="3840" inkscape:window-x="0" inkscape:window-y="25" inkscape:zoom="8.3732476" objecttolerance="10" pagecolor="#595959" showgrid="false" showguides="true">
		</sodipodi:namedview>
	<g>
		<rect id="rect4273" x="5.5" y="5.5" class="st0" width="37" height="24.3"/>
		<rect id="rect4275" x="11.3" y="7.6" class="st0" width="13.8" height="6.9"/>
		<rect id="rect4275-3" x="26.7" y="7.6" class="st0" width="13.9" height="6.9"/>
		<path id="path4292_2_" class="st1" d="M25.1,16.8H34"/>
		<path id="path4292_1_" class="st1" d="M7.3,16.8h15.5"/>
		<rect id="rect4296" x="22.7" y="15.9" class="st0" width="2.3" height="1.8"/>
		<line id="rect4300_1_" class="st0" x1="7.2" y1="11.5" x2="9.1" y2="11.5"/>
		<line id="rect4300-1_1_" class="st0" x1="9.1" y1="14.1" x2="7.2" y2="14.1"/>
		<line id="rect4317_1_" class="st0" x1="7.4" y1="19.8" x2="9.2" y2="19.8"/>
		<line id="rect4317-7_1_" class="st0" x1="10.9" y1="19.8" x2="12.8" y2="19.8"/>
		<line id="rect4317-5_1_" class="st0" x1="14.5" y1="19.8" x2="16.3" y2="19.8"/>
		<line id="rect4317-9_1_" class="st0" x1="18" y1="19.8" x2="19.9" y2="19.8"/>
		<line id="rect4317-6_1_" class="st0" x1="7.4" y1="21.7" x2="9.2" y2="21.7"/>
		<line id="rect4317-7-2_1_" class="st0" x1="10.9" y1="21.7" x2="12.8" y2="21.7"/>
		<line id="rect4317-5-1_1_" class="st0" x1="14.5" y1="21.7" x2="16.3" y2="21.7"/>
		<line id="rect4317-9-7_1_" class="st0" x1="18" y1="21.7" x2="19.9" y2="21.7"/>
		<line id="rect4317-8_1_" class="st0" x1="23.1" y1="19.8" x2="24.9" y2="19.8"/>
		<line id="rect4317-7-5_1_" class="st0" x1="26.6" y1="19.8" x2="28.5" y2="19.8"/>
		<line id="rect4317-5-7_1_" class="st0" x1="30.2" y1="19.8" x2="32" y2="19.8"/>
		<line id="rect4317-8-4_1_" class="st0" x1="23.1" y1="21.7" x2="24.9" y2="21.7"/>
		<line id="rect4317-7-5-1_1_" class="st0" x1="26.6" y1="21.7" x2="28.5" y2="21.7"/>
		<line id="rect4317-5-7-8_1_" class="st0" x1="30.2" y1="21.7" x2="32" y2="21.7"/>
		<line id="rect4317-7-5-5_1_" class="st0" x1="35.2" y1="19.8" x2="37" y2="19.8"/>
		<line id="rect4317-5-7-9_1_" class="st0" x1="38.8" y1="19.8" x2="40.6" y2="19.8"/>
		<line id="rect4317-7-5-1-7_1_" class="st0" x1="35.2" y1="21.7" x2="37" y2="21.7"/>
		<line id="rect4317-5-7-8-5_1_" class="st0" x1="38.8" y1="21.7" x2="40.6" y2="21.7"/>
		<line id="rect4317-7-5-3_1_" class="st0" x1="7.4" y1="25.7" x2="9.2" y2="25.7"/>
		<line id="rect4317-5-7-88_1_" class="st0" x1="10.9" y1="25.7" x2="12.8" y2="25.7"/>
		<line id="rect4317-7-5-1-3_1_" class="st0" x1="7.4" y1="27.6" x2="9.2" y2="27.6"/>
		<line id="rect4317-7-5-8_1_" class="st0" x1="15.4" y1="25.7" x2="17.2" y2="25.7"/>
		<line id="rect4317-5-7-96_1_" class="st0" x1="19" y1="25.7" x2="20.8" y2="25.7"/>
		<line id="rect4317-7-5-1-4_1_" class="st0" x1="15.4" y1="27.6" x2="17.2" y2="27.6"/>
		<line id="rect4317-5-7-8-3_1_" class="st0" x1="19" y1="27.6" x2="20.8" y2="27.6"/>
		<line id="rect4317-7-5-33_1_" class="st0" x1="23.8" y1="25.7" x2="25.6" y2="25.7"/>
		<line id="rect4317-7-5-1-0_1_" class="st0" x1="23.8" y1="27.6" x2="25.6" y2="27.6"/>
		<line id="rect4317-5-7-8-4_1_" class="st0" x1="27.3" y1="27.6" x2="29.1" y2="27.6"/>
		<line id="rect4317-7-5-88_1_" class="st0" x1="35.2" y1="25.7" x2="37.1" y2="25.7"/>
		<line id="rect4317-5-7-89_1_" class="st0" x1="38.8" y1="25.7" x2="40.6" y2="25.7"/>
		<line id="rect4317-7-5-1-77_1_" class="st0" x1="35.2" y1="27.6" x2="37.1" y2="27.6"/>
		<line id="rect4317-5-7-8-6_1_" class="st0" x1="38.8" y1="27.6" x2="40.6" y2="27.6"/>
		<rect id="rect4495" x="31.9" y="26.1" class="st0" width="0.2" height="0.3"/>
		<rect id="rect4495-3" x="33.5" y="27.3" class="st0" width="0.2" height="0.3"/>
		<path id="path4536" sodipodi:nodetypes="ccccccc" class="st1" d="M9.1,36C9.8,38.6,9.9,39,9,42.5l-1.5-2.2H6
			c-0.5-0.6-0.5-1.4,0-2.1h1.4L9.1,36z"/>
		<path id="path4536-3" sodipodi:nodetypes="ccccccc" class="st1" d="M38.8,31.5c-0.7,2.6-0.8,2.9,0.2,6.5l1.5-2.2h1.4
			c0.5-0.6,0.5-1.4,0-2.1h-1.4L38.8,31.5z"/>
		<path id="path4555" class="st1" d="M38.3,35.5h-2.8v-3.7h-3.2v3.9h-3v-3.8h-3.2v3.7h-3.3v-3.7h-3.1v3.6h-2.9v-3.6h-3.2v3.6h-3.2
			v-3.6H7.3v1.9"/>
		<path id="path4557" class="st1" d="M40,40l-1.6,1.9l-3.7-3.7l-3.4,3.5l-3.4-3.4l-3.2,3.3l-3.3-3.3L18,41.7l-3.4-3.4l-3.4,3.4
			L9.6,40"/>
		<line class="st2" x1="40.6" y1="16.8" x2="36.4" y2="16.8"/>
	</g>
</g>
</svg>

<svg xmlns="http://www.w3.org/2000/svg" viewBox="0 0 48 48"><defs><style>.a,.b{fill:none;stroke:#fff;stroke-linecap:round;stroke-linejoin:round;}.a{stroke-opacity:0.99;}</style></defs><rect class="a" x="5.5" y="5.5" width="37" height="24.3"/><rect class="a" x="11.3" y="7.6" width="13.8" height="6.9"/><rect class="a" x="26.7" y="7.6" width="13.9" height="6.9"/><path class="a" d="M25.1,16.8H34"/><path class="a" d="M7.3,16.8H22.8"/><rect class="a" x="22.7" y="15.9" width="2.3" height="1.8"/><line class="a" x1="7.2" y1="11.5" x2="9.1" y2="11.5"/><line class="a" x1="9.1" y1="14.1" x2="7.2" y2="14.1"/><line class="a" x1="7.4" y1="19.8" x2="9.2" y2="19.8"/><line class="a" x1="10.9" y1="19.8" x2="12.8" y2="19.8"/><line class="a" x1="14.5" y1="19.8" x2="16.3" y2="19.8"/><line class="a" x1="18" y1="19.8" x2="19.9" y2="19.8"/><line class="a" x1="7.4" y1="21.7" x2="9.2" y2="21.7"/><line class="a" x1="10.9" y1="21.7" x2="12.8" y2="21.7"/><line class="a" x1="14.5" y1="21.7" x2="16.3" y2="21.7"/><line class="a" x1="18" y1="21.7" x2="19.9" y2="21.7"/><line class="a" x1="23.1" y1="19.8" x2="24.9" y2="19.8"/><line class="a" x1="26.6" y1="19.8" x2="28.5" y2="19.8"/><line class="a" x1="30.2" y1="19.8" x2="32" y2="19.8"/><line class="a" x1="23.1" y1="21.7" x2="24.9" y2="21.7"/><line class="a" x1="26.6" y1="21.7" x2="28.5" y2="21.7"/><line class="a" x1="30.2" y1="21.7" x2="32" y2="21.7"/><line class="a" x1="35.2" y1="19.8" x2="37" y2="19.8"/><line class="a" x1="38.8" y1="19.8" x2="40.6" y2="19.8"/><line class="a" x1="35.2" y1="21.7" x2="37" y2="21.7"/><line class="a" x1="38.8" y1="21.7" x2="40.6" y2="21.7"/><line class="a" x1="7.4" y1="25.7" x2="9.2" y2="25.7"/><line class="a" x1="10.9" y1="25.7" x2="12.8" y2="25.7"/><line class="a" x1="7.4" y1="27.6" x2="9.2" y2="27.6"/><line class="a" x1="15.4" y1="25.7" x2="17.2" y2="25.7"/><line class="a" x1="19" y1="25.7" x2="20.8" y2="25.7"/><line class="a" x1="15.4" y1="27.6" x2="17.2" y2="27.6"/><line class="a" x1="19" y1="27.6" x2="20.8" y2="27.6"/><line class="a" x1="23.8" y1="25.7" x2="25.6" y2="25.7"/><line class="a" x1="23.8" y1="27.6" x2="25.6" y2="27.6"/><line class="a" x1="27.3" y1="27.6" x2="29.1" y2="27.6"/><line class="a" x1="35.2" y1="25.7" x2="37.1" y2="25.7"/><line class="a" x1="38.8" y1="25.7" x2="40.6" y2="25.7"/><line class="a" x1="35.2" y1="27.6" x2="37.1" y2="27.6"/><line class="a" x1="38.8" y1="27.6" x2="40.6" y2="27.6"/><rect class="a" x="31.9" y="26.1" width="0.2" height="0.3"/><rect class="a" x="33.5" y="27.3" width="0.2" height="0.3"/><path class="a" d="M9.1,36c.7,2.6.8,3-.1,6.5L7.5,40.3H6a1.66,1.66,0,0,1,0-2.1H7.4Z"/><path class="a" d="M38.8,31.5c-.7,2.6-.8,2.9.2,6.5l1.5-2.2h1.4a1.66,1.66,0,0,0,0-2.1H40.5Z"/><path class="a" d="M38.3,35.5H35.5V31.8H32.3v3.9h-3V31.9H26.1v3.7H22.8V31.9H19.7v3.6H16.8V31.9H13.6v3.6H10.4V31.9H7.3v1.9"/><path class="a" d="M40,40l-1.6,1.9-3.7-3.7-3.4,3.5-3.4-3.4-3.2,3.3-3.3-3.3L18,41.7l-3.4-3.4-3.4,3.4L9.6,40"/><line class="b" x1="40.6" y1="16.8" x2="36.4" y2="16.8"/></svg>
